X:187
T:Woo’d and Married and a’ TS.187
T:Irishman’s Choice,aka TS.187
T:My Mind Will Never be Easy,aka TS.187
T:New Widow Well Married,aka TS.187
M:9/8
L:1/8
Q:3/8=110
S:Thomas Sands’ MS,1810,Lincolnshire
R:slip jig
N:First note in final bar perhaps should be E
O:England;Lincolnshire
Z:vmp.Ruairidh Greig, 2011
K:Em
g|d2c BABG2A|Bcd dgBd2g|edc BAB GAB|E2e ef^de2:|
|:g|def gag fed|Bcd dgBd2g|def gag fed|B2e eg^de2g|
def gag fed|Bcd dgBd2g|edc BAB GAB|F2e ef^de2|]

